; generated by Slic3r 1.2.9 on 2018-06-22 at 12:16:18

; external perimeters extrusion width = 0.50mm
; perimeters extrusion width = 0.72mm
; infill extrusion width = 0.72mm
; solid infill extrusion width = 0.72mm
; top infill extrusion width = 0.72mm

M107
M104 S200 ; set temperature
G28 ; home all axes
G1 Z5 F5000 ; lift nozzle

M109 S200 ; wait for temperature to be reached
G21 ; set units to millimeters
G90 ; use absolute coordinates
M82 ; use absolute distances for extrusion
G92 E0
G1 Z0.350 F7800.000
G1 E-2.00000 F2400.00000
G92 E0
G1 X78.540 Y55.943 F7800.000
G1 E2.00000 F2400.00000
G1 X81.046 Y52.434 E2.13341 F1800.000
G1 X82.283 Y50.799 E2.19688
G1 X82.792 Y50.171 E2.22189
G1 X83.281 Y49.616 E2.24477
G1 X83.763 Y49.130 E2.26593
G1 X84.184 Y48.759 E2.28330
G1 X84.633 Y48.417 E2.30077
G1 X85.223 Y48.040 E2.32243
G1 X85.793 Y47.747 E2.34227
G1 X86.410 Y47.499 E2.36284
G1 X87.152 Y47.288 E2.38669
G1 X87.385 Y47.240 E2.39405
G1 X88.074 Y47.146 E2.41558
G1 X88.334 Y47.129 E2.42365
G1 X89.011 Y47.132 E2.44457
G1 X89.812 Y47.224 E2.46953 F1800.000
G1 X90.050 Y47.271 E2.47704
G1 X90.570 Y47.404 E2.49363
G1 X91.518 Y47.766 E2.52504
G1 X92.263 Y48.174 E2.55132
G1 X92.982 Y48.692 E2.57873
G1 X145.661 Y94.562 E4.74002
G1 X147.104 Y96.344 E4.81098
G1 X147.935 Y99.558 E4.91368
G1 X147.935 Y100.442 E4.94105
G1 X147.538 Y102.701 E5.01201
G1 X145.661 Y105.438 E5.11471
G1 X92.972 Y151.316 E7.27638
G1 X92.275 Y151.819 E7.30297
G1 X91.503 Y152.240 E7.33018
G1 X90.656 Y152.570 E7.35832
G1 X90.346 Y152.659 E7.36829
G1 X89.771 Y152.783 E7.38649
G1 X89.200 Y152.854 E7.40427
G1 X88.294 Y152.869 E7.43233
G1 X88.076 Y152.854 E7.43907
G1 X87.162 Y152.714 E7.46768
G1 X86.332 Y152.473 E7.49444
G1 X85.791 Y152.252 E7.51252
G1 X85.396 Y152.056 E7.52616
G1 X84.840 Y151.725 E7.54618
G1 X84.520 Y151.501 E7.55827
G1 X84.184 Y151.241 E7.57141
G1 X83.764 Y150.871 E7.58875
G1 X83.405 Y150.516 E7.60436
G1 X82.978 Y150.047 E7.62397
G1 X82.058 Y148.912 E7.66918
G1 X80.681 Y147.063 E7.74051
G1 X53.713 Y109.193 E9.17899
G1 X53.414 Y108.721 E9.19630
G1 X53.130 Y108.215 E9.21427
G1 X52.869 Y107.681 E9.23264
G1 X52.637 Y107.122 E9.25137
G1 X52.441 Y106.548 E9.27015
G1 X52.280 Y105.958 E9.28906
G1 X52.186 Y105.496 E9.30365
G1 X52.111 Y104.946 E9.32082
G1 X52.057 Y103.994 E9.35032
G1 X52.057 Y96.006 E9.59748
G1 X52.089 Y95.286 E9.61977
G1 X52.197 Y94.447 E9.64595
G1 X52.280 Y94.042 E9.65875
G1 X52.440 Y93.453 E9.67764
G1 X52.573 Y93.054 E9.69063
G1 X52.791 Y92.497 E9.70916
G1 X53.130 Y91.786 E9.73354
G1 X53.414 Y91.279 E9.75150
G1 X53.860 Y90.592 E9.77685
G1 X78.496 Y56.004 E11.09077
G1 E9.09077 F2400.00000
G92 E0
G1 X87.698 Y139.841 F7800.000
G1 E2.00000 F2400.00000
G1 X87.652 Y140.787 E2.02931 F1800.000
G1 X87.638 Y142.195 E2.07288
G1 X87.378 Y142.276 E2.08132
G1 X86.754 Y141.395 E2.11472
G1 X85.860 Y140.037 E2.16503
G1 X87.623 Y139.849 E2.21989
G1 X88.357 Y139.142 F7800.000
G1 X88.277 Y140.805 E2.27142 F1800.000
G1 X88.247 Y143.726 E2.36179
G1 X88.216 Y144.437 E2.38383
G1 X87.194 Y143.099 E2.43592
G1 X86.237 Y141.748 E2.48714
G1 X85.331 Y140.370 E2.53819
G1 X84.813 Y139.520 E2.56896
G1 X88.282 Y139.150 E2.67690
G1 X84.759 Y138.898 F7800.000
G1 X89.055 Y138.439 E2.81059 F1800.000
G1 X88.973 Y139.325 E2.83812
G1 X88.902 Y140.823 E2.88454
G1 X88.872 Y143.742 E2.97487
G1 X88.841 Y144.432 E2.99623
G1 X88.795 Y144.986 E3.01343
G1 X88.715 Y145.497 E3.02942
G1 X88.604 Y145.855 E3.04104
G1 X88.315 Y145.553 E3.05398
G1 X87.973 Y145.149 E3.07037
G1 X86.691 Y143.469 E3.13576
G1 X85.721 Y142.100 E3.18766
G1 X84.803 Y140.704 E3.23936
G1 X83.935 Y139.281 E3.29094
G1 X83.118 Y137.831 E3.34243
G1 X82.592 Y136.816 E3.37780
G1 X84.515 Y136.611 E3.43764
G1 X84.751 Y138.823 E3.50648
G1 X84.812 Y139.395 F7800.000
G1 E1.50648 F2400.00000
G92 E0
G1 X88.905 Y137.229 F7800.000
G1 E2.00000 F2400.00000
G1 X88.790 Y136.156 E2.03339 F1800.000
G1 X89.445 Y136.090 E2.05374
G1 X89.232 Y137.239 E2.08988
G1 X88.980 Y137.231 E2.09769
G1 X89.128 Y136.782 F7800.000
G1 E0.09769 F2400.00000
G92 E0
G1 X86.900 Y140.240 F7800.000
G1 E2.00000 F2400.00000
G1 X87.317 Y141.625 E2.04474 F1800.000
G1 X84.278 Y138.911 F7800.000
G1 X83.671 Y137.015 E2.17532 F1800.000
G1 E0.17532 F2400.00000
G92 E0
G1 X87.130 Y136.901 F7800.000
G1 E2.00000 F2400.00000
G1 X86.290 Y136.990 E2.02614 F1800.000
G1 X86.044 Y134.691 E2.09770
G1 X86.884 Y134.541 E2.12411
G1 X87.122 Y136.826 E2.19519
G1 X84.477 Y134.277 F7800.000
G1 X82.182 Y134.522 E2.26660 F1800.000
G1 X81.585 Y133.149 E2.31293
G1 X84.193 Y132.684 E2.39490
G1 X84.464 Y134.203 E2.44263
G1 X85.102 Y134.224 F7800.000
G1 X89.335 Y133.470 E2.57567 F1800.000
G1 X88.932 Y131.206 E2.64681
G1 X90.892 Y130.863 E2.70837
G1 X90.373 Y132.436 E2.75963
G1 X90.055 Y133.530 E2.79488
G1 X89.845 Y134.331 E2.82052
G1 X87.517 Y134.580 E2.89296
G1 X87.812 Y137.424 E2.98144
G1 X87.646 Y137.474 E2.98681
G1 X85.911 Y137.659 E3.04081
G1 X85.759 Y137.649 E3.04553
G1 X85.716 Y137.500 E3.05031
G1 X85.428 Y134.803 E3.13423
G1 X81.798 Y135.191 E3.24719
G1 X81.200 Y133.859 E3.29237
G1 X80.715 Y132.669 E3.33213
G1 X84.699 Y131.959 E3.45734
G1 X85.089 Y134.150 E3.52618
G1 X85.190 Y134.716 F7800.000
G1 X84.025 Y133.523 F7800.000
G1 X82.193 Y133.784 E3.64757 F1800.000
G1 X87.167 Y134.239 F7800.000
G1 X89.638 Y133.887 E3.72480 F1800.000
G1 X89.727 Y132.960 F7800.000
G1 X89.824 Y131.367 E3.82946 F1800.000
G1 E1.82946 F2400.00000
G92 E0
G1 X86.496 Y132.214 F7800.000
G1 E2.00000 F2400.00000
G1 X86.094 Y129.959 E2.07087 F1800.000
G1 X86.922 Y129.751 E2.09728
G1 X87.328 Y132.066 E2.16999
G1 X86.570 Y132.201 E2.19380
G1 E0.19380 F2400.00000
G92 E0
G1 X83.375 Y129.834 F7800.000
G1 E2.00000 F2400.00000
G1 X80.520 Y130.342 E2.08972 F1800.000
G1 X80.108 Y129.092 E2.13046
G1 X83.005 Y128.364 E2.22291
G1 X83.356 Y129.761 E2.26749
G1 X89.316 Y128.141 F7800.000
G1 X89.146 Y127.466 E2.28902 F1800.000
G1 X91.076 Y126.981 E2.35059
G1 X90.686 Y127.897 E2.38139
G1 X89.390 Y128.128 E2.42212
G1 X88.852 Y128.858 F7800.000
G1 X88.388 Y127.012 E2.48102 F1800.000
G1 X92.179 Y126.060 E2.60195
G1 X91.415 Y127.763 E2.65971
G1 X91.134 Y128.452 E2.68271
G1 X88.926 Y128.845 E2.75212
G1 X88.190 Y128.789 F7800.000
G1 X87.630 Y126.558 E2.82329 F1800.000
G1 X93.323 Y125.128 E3.00493
G1 X92.519 Y126.804 E3.06245
G1 X91.990 Y128.007 E3.10312
G1 X91.583 Y129.006 E3.13651
G1 X87.552 Y129.724 E3.26319
G1 X88.046 Y132.543 E3.35172
G1 X87.881 Y132.602 E3.35715
G1 X86.165 Y132.908 E3.41107
G1 X86.013 Y132.907 E3.41577
G1 X85.960 Y132.764 E3.42048
G1 X85.484 Y130.093 E3.50443
G1 X80.104 Y131.051 E3.67351
G1 X79.682 Y129.829 E3.71353
G1 X79.315 Y128.646 E3.75182
G1 X83.459 Y127.606 E3.88402
G1 X84.020 Y129.836 E3.95519
G1 X88.117 Y128.807 E4.08592
G1 X88.675 Y128.667 F7800.000
G1 E2.08592 F2400.00000
G92 E0
G1 X82.884 Y129.163 F7800.000
G1 E2.00000 F2400.00000
G1 X80.612 Y129.651 E2.15246 F1800.000
G1 E0.15246 F2400.00000
G92 E0
G1 X86.088 Y127.523 F7800.000
G1 E2.00000 F2400.00000
G1 X85.270 Y127.732 E2.02614 F1800.000
G1 X84.700 Y125.466 E2.09844
G1 X85.519 Y125.230 E2.12480
G1 X86.070 Y127.450 E2.19558
G1 E0.19558 F2400.00000
G92 E0
G1 X81.428 Y125.074 F7800.000
G1 E2.00000 F2400.00000
G1 X80.789 Y125.235 E2.02039 F1800.000
G1 X80.693 Y124.879 E2.03179
G1 X81.319 Y124.698 E2.05197
G1 X81.407 Y125.002 E2.06176
G1 X82.208 Y125.523 F7800.000
G1 X79.307 Y126.251 E2.15432 F1800.000
G1 X79.124 Y125.530 E2.17734
G1 X78.950 Y124.732 E2.20262
G1 X81.747 Y123.925 E2.29269
G1 X82.187 Y125.451 E2.34184
G1 X88.027 Y123.417 F7800.000
G1 X87.852 Y122.813 E2.36129 F1800.000
G1 X94.158 Y120.993 E2.56437
G1 X93.568 Y122.025 E2.60118
G1 X88.099 Y123.399 E2.77563
G1 X87.594 Y124.170 F7800.000
G1 X87.079 Y122.386 E2.83309 F1800.000
G1 X95.545 Y119.942 E3.10576
G1 X94.529 Y121.603 E3.16601
G1 X93.978 Y122.566 E3.20035
G1 X87.666 Y124.152 E3.40171
G1 X86.943 Y124.168 F7800.000
G1 X86.305 Y121.959 E3.47287 F1800.000
G1 X97.030 Y118.863 E3.81827
G1 X95.877 Y120.598 E3.88272
G1 X95.067 Y121.921 E3.93073
G1 X94.388 Y123.108 E3.97303
G1 X86.150 Y125.177 E4.23586
G1 X86.844 Y127.974 E4.32504
G1 X84.986 Y128.450 E4.38437
G1 X84.836 Y128.460 E4.38904
G1 X84.772 Y128.318 E4.39388
G1 X84.112 Y125.689 E4.47775
G1 X78.854 Y127.009 E4.64549
G1 X78.516 Y125.673 E4.68813
G1 X78.215 Y124.294 E4.73183
G1 X82.174 Y123.151 E4.85933
G1 X82.811 Y125.361 E4.93049
G1 X86.871 Y124.189 E5.06122
G1 X87.423 Y124.030 F7800.000
G1 X88.978 Y122.834 F7800.000
G1 X93.432 Y121.633 E5.20397 F1800.000
G1 E3.20397 F2400.00000
G92 E0
G1 X84.800 Y122.982 F7800.000
G1 E2.00000 F2400.00000
G1 X83.988 Y123.216 E2.02614 F1800.000
G1 X83.331 Y120.942 E2.09939
G1 X84.141 Y120.677 E2.12576
G1 X84.779 Y122.910 E2.19761
G1 E0.19761 F2400.00000
G92 E0
G1 X79.976 Y120.715 F7800.000
G1 E2.00000 F2400.00000
G1 X78.636 Y121.102 E2.04314 F1800.000
G1 X78.528 Y120.750 E2.05454
G1 X79.846 Y120.319 E2.09746
G1 X79.953 Y120.644 E2.10805
G1 X80.771 Y121.136 F7800.000
G1 X78.285 Y121.854 E2.18812 F1800.000
G1 X78.118 Y121.544 E2.19901
G1 X77.651 Y120.925 E2.22300
G1 X77.289 Y120.497 E2.24033
G1 X80.246 Y119.531 E2.33658
G1 X80.748 Y121.065 E2.38653
G1 X86.513 Y118.828 F7800.000
G1 X86.309 Y118.206 E2.40678 F1800.000
G1 X98.691 Y114.159 E2.80982
G1 X98.850 Y114.391 E2.81852
G1 X97.933 Y115.532 E2.86378
G1 X86.585 Y118.807 E3.22925
G1 X86.106 Y119.596 F7800.000
G1 X85.521 Y117.806 E3.28751 F1800.000
G1 X100.615 Y112.873 E3.77883
G1 X100.772 Y113.114 E3.78774
G1 X99.639 Y114.415 E3.84111
G1 X98.300 Y116.076 E3.90713
G1 X86.178 Y119.575 E4.29750
G1 X85.448 Y119.593 F7800.000
G1 X84.733 Y117.407 E4.36867 F1800.000
G1 X102.759 Y111.515 E4.95545
G1 X102.914 Y111.767 E4.96460
G1 X101.634 Y113.090 E5.02158
G1 X100.877 Y113.931 E5.05658
G1 X100.117 Y114.817 E5.09268
G1 X98.667 Y116.621 E5.16432
G1 X84.778 Y120.630 E5.61161
G1 X85.563 Y123.379 E5.70008
G1 X85.404 Y123.458 E5.70557
G1 X83.591 Y123.981 E5.76396
G1 X83.511 Y123.819 E5.76957
G1 X82.759 Y121.213 E5.85350
G1 X77.844 Y122.631 E6.01177
G1 X77.679 Y122.047 E6.03056
G1 X77.590 Y121.882 E6.03635
G1 X77.162 Y121.315 E6.05833
G1 X76.213 Y120.191 E6.10384
G1 X80.646 Y118.742 E6.24813
G1 X81.361 Y120.929 E6.31930
G1 X85.377 Y119.616 E6.45002
G1 X85.923 Y119.437 F7800.000
G1 X86.736 Y118.417 F7800.000
G1 X97.621 Y115.069 E6.80239 F1800.000
G1 X98.203 Y114.664 E6.82431
G1 X99.027 Y114.098 F7800.000
G1 X100.086 Y113.391 E6.86369 F1800.000
G1 X100.953 Y112.820 F7800.000
G1 X102.161 Y112.056 E6.90793 F1800.000
G1 E4.90793 F2400.00000
G92 E0
G1 X83.264 Y118.482 F7800.000
G1 E2.00000 F2400.00000
G1 X82.462 Y118.745 E2.02614 F1800.000
G1 X81.682 Y116.360 E2.10377
G1 X82.483 Y116.067 E2.13014
G1 X83.241 Y118.411 E2.20638
G1 E0.20638 F2400.00000
G92 E0
G1 X78.154 Y116.454 F7800.000
G1 E2.00000 F2400.00000
G1 X75.835 Y117.211 E2.07547 F1800.000
G1 X75.626 Y116.792 E2.08997
G1 X77.965 Y115.937 E2.16704
G1 X78.128 Y116.383 E2.18176
G1 X78.963 Y116.847 F7800.000
G1 X75.518 Y117.973 E2.29392 F1800.000
G1 X74.754 Y116.446 E2.34674
G1 X78.337 Y115.135 E2.46480
G1 X78.937 Y116.776 E2.51887
G1 X84.621 Y114.340 F7800.000
G1 X84.350 Y113.600 E2.54326 F1800.000
G1 X107.022 Y105.304 E3.29023
G1 X106.852 Y105.854 E3.30801
G1 X106.684 Y106.217 E3.32041
G1 X106.508 Y106.504 E3.33082
G1 X106.112 Y107.025 E3.35105
G1 X105.730 Y107.440 E3.36852
G1 X84.692 Y114.317 E4.05335
G1 X84.242 Y115.121 F7800.000
G1 X83.549 Y113.228 E4.11574 F1800.000
G1 X107.593 Y104.430 E4.90795
G1 X107.621 Y104.709 E4.91662
G1 X107.623 Y105.078 E4.92804
G1 X107.602 Y105.388 E4.93765
G1 X107.532 Y105.771 E4.94970
G1 X107.440 Y106.067 E4.95929
G1 X107.344 Y106.298 E4.96704
G1 X107.230 Y106.523 E4.97483
G1 X107.024 Y106.857 E4.98699
G1 X106.592 Y107.426 E5.00908
G1 X106.080 Y107.983 E5.03251
G1 X84.313 Y115.098 E5.74107
G1 X83.537 Y115.015 F7800.000
G1 X82.747 Y112.856 E5.81223 F1800.000
G1 X107.964 Y103.629 E6.64308
G1 X108.062 Y103.792 E6.64896
G1 X108.155 Y104.053 E6.65755
G1 X108.211 Y104.328 E6.66622
G1 X108.245 Y104.676 E6.67704
G1 X108.248 Y105.097 E6.69007
G1 X108.223 Y105.466 E6.70151
G1 X108.140 Y105.920 E6.71578
G1 X108.029 Y106.280 E6.72746
G1 X107.776 Y106.828 E6.74613
G1 X107.540 Y107.211 E6.76003
G1 X107.072 Y107.827 E6.78398
G1 X106.429 Y108.527 E6.81337
G1 X83.161 Y116.132 E7.57082
G1 X84.041 Y118.852 E7.65929
G1 X83.885 Y118.937 E7.66478
G1 X82.229 Y119.478 E7.71868
G1 X82.079 Y119.499 E7.72339
G1 X82.006 Y119.363 E7.72816
G1 X81.163 Y116.785 E7.81209
G1 X75.223 Y118.726 E8.00545
G1 X74.967 Y118.268 E8.02171
G1 X74.106 Y116.550 E8.08116
G1 X73.841 Y116.115 E8.09693
G1 X78.709 Y114.333 E8.25732
G1 X79.499 Y116.493 E8.32848
G1 X83.467 Y115.041 E8.45921
G1 X84.007 Y114.844 F7800.000
G1 X84.781 Y113.868 F7800.000
G1 X91.256 Y111.626 E8.67121 F1800.000
G1 X91.256 Y111.626 F7800.000
G1 X105.295 Y106.764 E9.64591 F1800.000
G1 X106.247 Y106.081 E9.72273
G1 E7.72273 F2400.00000
G92 E0
G1 X72.050 Y108.568 F7800.000
G1 E2.00000 F2400.00000
G1 X71.419 Y108.437 E2.01995 F1800.000
G1 X71.180 Y108.301 E2.02846
G1 X70.982 Y108.103 E2.03712
G1 X70.825 Y107.862 E2.04602
G1 X70.705 Y107.587 E2.05532
G1 X70.619 Y107.285 E2.06503
G1 X70.567 Y106.964 E2.07507
G1 X70.550 Y106.644 E2.08501
G1 X70.550 Y103.621 E2.17854
G1 X70.588 Y103.142 E2.19340
G1 X70.704 Y102.681 E2.20811
G1 X70.899 Y102.279 E2.22193
G1 X71.171 Y101.973 E2.23460
G1 X71.412 Y101.836 E2.24317
G1 X71.568 Y101.796 E2.24816
G1 X72.050 Y101.729 E2.26322
G1 X72.050 Y108.493 E2.47251
G1 X71.982 Y109.064 F7800.000
G1 X75.050 Y108.568 F7800.000
G1 X74.419 Y108.437 E2.49245 F1800.000
G1 X74.180 Y108.301 E2.50097
G1 X73.982 Y108.103 E2.50962
G1 X73.825 Y107.862 E2.51853
G1 X73.705 Y107.587 E2.52783
G1 X73.619 Y107.285 E2.53754
G1 X73.567 Y106.964 E2.54758
G1 X73.550 Y106.644 E2.55751
G1 X73.550 Y103.621 E2.65105
G1 X73.588 Y103.142 E2.66591
G1 X73.704 Y102.681 E2.68062
G1 X73.899 Y102.279 E2.69444
G1 X74.171 Y101.973 E2.70711
G1 X74.412 Y101.836 E2.71568
G1 X74.568 Y101.796 E2.72066
G1 X75.050 Y101.729 E2.73573
G1 X75.050 Y108.493 E2.94502
G1 X74.982 Y109.064 F7800.000
G1 X78.050 Y108.568 F7800.000
G1 X77.419 Y108.437 E2.96496 F1800.000
G1 X77.180 Y108.301 E2.97347
G1 X76.982 Y108.103 E2.98213
G1 X76.825 Y107.862 E2.99104
G1 X76.705 Y107.587 E3.00033
G1 X76.619 Y107.285 E3.01004
G1 X76.567 Y106.964 E3.02008
G1 X76.550 Y106.644 E3.03002
G1 X76.550 Y103.621 E3.12356
G1 X76.588 Y103.142 E3.13841
G1 X76.704 Y102.681 E3.15313
G1 X76.899 Y102.279 E3.16695
G1 X77.171 Y101.973 E3.17962
G1 X77.412 Y101.836 E3.18819
G1 X77.568 Y101.796 E3.19317
G1 X78.050 Y101.729 E3.20824
G1 X78.050 Y108.493 E3.41752
G1 X77.982 Y109.064 F7800.000
G1 X81.050 Y108.568 F7800.000
G1 X80.419 Y108.437 E3.43747 F1800.000
G1 X80.180 Y108.301 E3.44598
G1 X79.982 Y108.103 E3.45464
G1 X79.825 Y107.862 E3.46354
G1 X79.705 Y107.587 E3.47284
G1 X79.619 Y107.285 E3.48255
G1 X79.567 Y106.964 E3.49259
G1 X79.550 Y106.644 E3.50253
G1 X79.550 Y103.621 E3.59607
G1 X79.588 Y103.142 E3.61092
G1 X79.704 Y102.681 E3.62563
G1 X79.899 Y102.279 E3.63946
G1 X80.171 Y101.973 E3.65212
G1 X80.412 Y101.836 E3.66069
G1 X80.568 Y101.796 E3.66568
G1 X81.050 Y101.729 E3.68075
G1 X81.050 Y108.493 E3.89003
G1 X80.982 Y109.064 F7800.000
G1 X81.050 Y98.299 F7800.000
G1 X80.419 Y98.168 E3.90998 F1800.000
G1 X80.180 Y98.032 E3.91849
G1 X79.982 Y97.834 E3.92715
G1 X79.825 Y97.593 E3.93605
G1 X79.705 Y97.317 E3.94535
G1 X79.619 Y97.016 E3.95506
G1 X79.567 Y96.695 E3.96510
G1 X79.550 Y96.375 E3.97504
G1 X79.550 Y93.352 E4.06857
G1 X79.588 Y92.873 E4.08343
G1 X79.704 Y92.412 E4.09814
G1 X79.899 Y92.010 E4.11196
G1 X80.171 Y91.704 E4.12463
G1 X80.412 Y91.567 E4.13320
G1 X80.568 Y91.527 E4.13818
G1 X81.050 Y91.460 E4.15325
G1 X81.050 Y98.224 E4.36254
G1 X80.982 Y98.794 F7800.000
G1 X78.050 Y98.299 F7800.000
G1 X77.419 Y98.168 E4.38249 F1800.000
G1 X77.180 Y98.032 E4.39100
G1 X76.982 Y97.834 E4.39966
G1 X76.825 Y97.593 E4.40856
G1 X76.705 Y97.317 E4.41786
G1 X76.619 Y97.016 E4.42757
G1 X76.567 Y96.695 E4.43761
G1 X76.550 Y96.375 E4.44755
G1 X76.550 Y93.352 E4.54108
G1 X76.588 Y92.873 E4.55594
G1 X76.704 Y92.412 E4.57065
G1 X76.899 Y92.010 E4.58447
G1 X77.171 Y91.704 E4.59714
G1 X77.412 Y91.567 E4.60570
G1 X77.568 Y91.527 E4.61069
