; generated by Slic3r 1.2.9 on 2019-04-02 at 05:24:20

; external perimeters extrusion width = 0.50mm
; perimeters extrusion width = 0.72mm
; infill extrusion width = 0.72mm
; solid infill extrusion width = 0.72mm
; top infill extrusion width = 0.72mm

M107
M104 S200 ; set temperature
G28 ; home all axes
G1 Z5 F5000 ; lift nozzle

M109 S200 ; wait for temperature to be reached
G21 ; set units to millimeters
G90 ; use absolute coordinates
M82 ; use absolute distances for extrusion
G92 E0
G1 Z0.350 F7800.000
G1 E-2.00000 F2400.00000
G92 E0
G1 X74.915 Y75.753 F7800.000
G1 E2.00000 F2400.00000
G1 X76.668 Y74.274 E2.07096 F1800.000
G1 X78.820 Y73.481 E2.14192
G1 X80.000 Y73.375 E2.17858
G1 X120.000 Y73.375 E3.41623
G1 X122.259 Y73.772 E3.48719
G1 X124.247 Y74.915 E3.55815 F1800.000
G1 X125.726 Y76.668 E3.62911
G1 X126.519 Y78.820 E3.70008